sites/kit.svelte.dev/src/routes/logo-nodejs.svg

<svg width="104" height="114" viewBox="0 0 104 114" fill="none" xmlns="http://www.w3.org/2000/svg">
<g opacity="0.8">
<path d="M51.9577 113.756C50.4045 113.756 48.8786 113.353 47.5334 112.588L33.4546 104.371C31.3534 103.211 32.3773 102.802 33.0722 102.562C35.3068 101.882 37.4465 100.928 39.4413 99.7246C39.6083 99.6484 39.7923 99.6155 39.9757 99.629C40.1592 99.6425 40.3362 99.7019 40.4899 99.8016L51.308 106.138C51.5094 106.243 51.7339 106.298 51.9618 106.298C52.1897 106.298 52.4141 106.243 52.6155 106.138L94.8026 82.1301C95 82.0134 95.1633 81.8483 95.2765 81.6507C95.3896 81.4531 95.4488 81.2299 95.4481 81.003V32.9789C95.4483 32.7484 95.3882 32.5218 95.2737 32.3208C95.1592 32.1199 94.9941 31.9514 94.7943 31.8316L52.6073 7.84388C52.4084 7.73342 52.1839 7.67539 51.9556 7.67539C51.7273 7.67539 51.5028 7.73342 51.3039 7.84388L9.14151 31.8397C8.9404 31.957 8.77341 32.1235 8.65671 32.3231C8.54001 32.5226 8.47756 32.7486 8.4754 32.9789V80.9828C8.47598 81.2092 8.53759 81.4313 8.65391 81.6265C8.77024 81.8217 8.9371 81.9829 9.1374 82.0936L20.708 88.6773C26.9785 91.7665 30.8189 88.126 30.8189 84.4692V37.0735C30.8189 36.7509 30.9489 36.4416 31.1802 36.2135C31.4115 35.9854 31.7253 35.8573 32.0524 35.8573H37.3978C37.7249 35.8573 38.0387 35.9854 38.27 36.2135C38.5014 36.4416 38.6313 36.7509 38.6313 37.0735V84.4733C38.6313 92.7233 34.0755 97.4462 26.1397 97.4462C22.7161 97.505 19.3462 96.6023 16.4235 94.8435L5.33399 88.5719C3.98774 87.799 2.87068 86.6913 2.09434 85.3596C1.31799 84.0279 0.909519 82.5188 0.909697 80.9828V32.9789C0.905696 31.4405 1.31244 29.9282 2.08906 28.5939C2.86568 27.2596 3.98481 26.1503 5.33399 25.3776L47.5251 1.36148C48.8842 0.628377 50.4085 0.244141 51.9577 0.244141C53.5068 0.244141 55.0311 0.628377 56.3902 1.36148L98.5772 25.3776C99.9233 26.149 101.041 27.2551 101.818 28.5854C102.595 29.9156 103.004 31.4235 103.006 32.9586V80.9828C103.003 82.5188 102.593 84.0274 101.816 85.3588C101.04 86.6902 99.9228 87.7979 98.5772 88.5719L56.3902 112.588C55.0425 113.355 53.5136 113.757 51.9577 113.756Z" fill="#676778"/>
<path d="M43.9561 64.9168C43.9561 64.5942 44.086 64.2849 44.3173 64.0568C44.5487 63.8287 44.8624 63.7006 45.1896 63.7006H50.6459C50.9375 63.7015 51.2193 63.8042 51.4413 63.9905C51.6634 64.1768 51.8113 64.4346 51.8589 64.7182C52.6813 70.1952 55.1484 72.956 66.3037 72.956C75.1893 72.956 78.9762 70.9735 78.9762 66.3235C78.9762 63.6438 77.903 61.6533 64.0915 60.3195C52.5456 59.1925 45.4075 56.6709 45.4075 47.5736C45.4075 39.1818 52.5826 34.175 64.6096 34.175C78.1251 34.175 84.815 38.8007 85.662 48.725C85.6749 48.8907 85.6533 49.0572 85.5984 49.2143C85.5435 49.3715 85.4566 49.5158 85.3429 49.6385C85.2293 49.7612 85.0913 49.8597 84.9376 49.9278C84.7838 49.9959 84.6175 50.0322 84.449 50.0344H78.9557C78.6801 50.0306 78.4137 49.9359 78.1991 49.7655C77.9845 49.595 77.8339 49.3586 77.7715 49.0939C76.4598 43.3331 73.2485 41.4926 64.6137 41.4926C54.9099 41.4926 53.7832 44.825 53.7832 47.3223C53.7832 50.3466 55.1155 51.2304 68.2156 52.9371C81.1801 54.6277 87.3396 57.0195 87.3396 66.0033C87.3396 75.0681 79.6752 80.2573 66.3078 80.2573C47.8253 80.2816 43.9561 71.9262 43.9561 64.9168Z" fill="#676778"/>
</g>
</svg>

<svg xmlns="http://www.w3.org/2000/svg" width="104" height="114" fill="none"><path fill="#676778" d="M51.958 113.756a8.953 8.953 0 0 1-4.425-1.168l-14.078-8.217c-2.102-1.16-1.078-1.569-.383-1.809a28.258 28.258 0 0 0 6.37-2.837 1.094 1.094 0 0 1 1.048.077l10.818 6.336a1.415 1.415 0 0 0 1.307 0L94.803 82.13a1.32 1.32 0 0 0 .474-.48c.113-.197.172-.42.171-.647V32.979c0-.23-.06-.457-.174-.658a1.35 1.35 0 0 0-.48-.49L52.607 7.845a1.343 1.343 0 0 0-1.303 0L9.142 31.84a1.347 1.347 0 0 0-.485.483c-.117.2-.18.426-.182.656v48.004a1.284 1.284 0 0 0 .662 1.111l11.571 6.583c6.27 3.09 10.11-.551 10.11-4.208V37.074c0-.323.13-.632.362-.86a1.24 1.24 0 0 1 .872-.357h5.346c.327 0 .64.128.872.357.231.228.361.537.361.86v47.4c0 8.25-4.556 12.972-12.491 12.972a18.242 18.242 0 0 1-9.716-2.602l-11.09-6.272a8.843 8.843 0 0 1-3.24-3.212A8.686 8.686 0 0 1 .91 80.983V32.979a8.67 8.67 0 0 1 1.18-4.385 8.827 8.827 0 0 1 3.244-3.216L47.525 1.36A9.34 9.34 0 0 1 51.958.244a9.34 9.34 0 0 1 4.432 1.117l42.187 24.017a8.84 8.84 0 0 1 3.241 3.207 8.69 8.69 0 0 1 1.188 4.374v48.024a8.713 8.713 0 0 1-1.19 4.376 8.856 8.856 0 0 1-3.239 3.213L56.39 112.588a8.951 8.951 0 0 1-4.432 1.168Z"/><path fill="#676778" d="M43.956 64.917c0-.323.13-.632.361-.86.232-.228.545-.357.873-.357h5.456c.291.001.573.104.795.29.222.187.37.444.418.728.822 5.477 3.29 8.238 14.445 8.238 8.885 0 12.672-1.983 12.672-6.633 0-2.68-1.073-4.67-14.884-6.004-11.546-1.127-18.684-3.648-18.684-12.745 0-8.392 7.175-13.399 19.202-13.399 13.515 0 20.205 4.626 21.052 14.55a1.2 1.2 0 0 1-.319.913 1.233 1.233 0 0 1-.894.396h-5.493a1.244 1.244 0 0 1-.757-.269 1.215 1.215 0 0 1-.427-.671c-1.312-5.761-4.523-7.602-13.158-7.602-9.704 0-10.83 3.333-10.83 5.83 0 3.024 1.331 3.908 14.432 5.615C81.18 54.627 87.34 57.02 87.34 66.003c0 9.065-7.665 14.254-21.032 14.254-18.483.024-22.352-8.33-22.352-15.34Z"/></svg>
